X: 1012
T: Valse-Clog Lacroix
R: Valse Clog
C: Henri Lacroix
M: 3/4
I: scale 0.78
L: 1/8
Q: 175
K: D
AA Bc|"D"d3cd2|"Em"e3de2|"D/F#"f2a2~f2|"G"e2d2e2|"D/F#"f2d'2b2|
"Bm7"a3fd2|"Em7"e2ef ed|"A7"~c2~B2~A2|"D"d3cd2|"Em"e2d3e|
"D/F#"f2a2~f2|"G"~e2d3e|"D/F#"f2~d'2~b2|"Bm"a2~f2~d2|"Em"eb ge "A7"Bc|"D"~d2:|
|:AA Bc|"D"dc de fg|"D7/F#"a2f2(3dfa|"G"d'zc'2"A"b2|"D"a3b af|"Em"g2 ga ge|
"D/F#"f2fg "Bm"fd|"Em"e2ef ed|"A"~c2~B2A2|"D"dc de fg|"D7/F#"a2~f2(3dfa|"G"d'zc'2"A"b2|
"D"a3b "Bm"af|"Em"g2 ga "A7"ge|"D"f2fg "Bm"fd|"G"eb ge "A"Bc|"D"~d2:|

%%newpage
%%textfont * 14
%%begintext justify
%%Listening Sets
%%endtext
